X:31
T:Untitled Hornpipe. RDO.31
M:4/4
L:1/8
Q:1/2=90
S:Robert D. Owen MS,Indiana,1826.
R:.Hornpipe
O:Indiana,USA
A:New Harmony
Z:vmp.Chris Partington
K:Bb
fdfd BdcB|cdBcA2F2|GBAc Bdce|dfed{d}c4|!
fdfd BdcB|cdAcA2F2|GBAc Bdce|d2c2B4:|!
|:Bdfb bagf|g2g2g2f2|(gf)ed (ed)cB|A2B2c2c2|!
Bdfb bagf|g2g2g2f2|gfed edcB|F2A2B4:|

